outputs/icons/communication/new_chat_round.svg

<svg xmlns="http://www.w3.org/2000/svg" width="1200" height="1200" fill="none"><path fill="#000" d="M825 800h50V675h125v-50H875V500h-50v125H700v50h125zm25 100q-103.749 0-176.875-73.125Q600 753.749 600 650t73.125-176.875T850 400t176.875 73.125Q1100 546.251 1100 650t-73.125 176.875T850 900"/><path fill="#000" d="M230 200h640c44 0 80 36 80 80v73.545A353 353 0 0 0 900 350c-10.105 0-20.11.428-30 1.268V280H230v560l80-80h245.125a347.3 347.3 0 0 0 24 80H310l-160 160V280c0-44 36-80 80-80"/></svg>

<svg width="1200" height="1200" viewBox="0 0 1200 1200" fill="none" xmlns="http://www.w3.org/2000/svg"><path d="M825 800H875V675H1000V625H875V500H825V625H700V675H825V800ZM850 900C780.835 900 721.875 875.625 673.125 826.875C624.375 778.125 600 719.165 600 650C600 580.835 624.375 521.875 673.125 473.125C721.875 424.375 780.835 400 850 400C919.165 400 978.125 424.375 1026.875 473.125C1075.625 521.875 1100 580.835 1100 650C1100 719.165 1075.625 778.125 1026.875 826.875C978.125 875.625 919.165 900 850 900Z" fill="black"/><path d="M230 200H870C914 200 950 236 950 280V353.545C933.67 351.209 916.975 350 900 350C889.895 350 879.89 350.428 870 351.268V280H230V840L310 760H555.125C559.95 787.94 568.09 814.745 579.125 840H310L150 1000V280C150 236 186 200 230 200Z" fill="black"/></svg>
